X:302
T:Greig's Pipes
R:Reel
M:C|
L:1/8
K:G
B3 B BAGA|B2 GB AGEG|B3 B BAGB|A2BG AGEG|B3B BAGA|
B2 dB AGEG|B~d3 eBdB|AcBG AGEG||DG G2 DGBG|DGBG AGEG|
DG G2 DGBG|dBAc BGGE|DG G2 DGBG|DGBG AGEG|DG G2 DGBG|
DBAc BGGB||d2 Bd egge|d2 BG AGEG|d2 Bd eg g2|agbg ageg|
D2 Bd egge|d2 BG AGEG|d2 Bd eg g2|a2 bg aged||

